X: 100
T:Gladez
M:4/4
L:1/8
C:Jonathan Shorland
S:Fernhill
R:Schottische
Z:Steve Mansfield
K:Am
EccB A2A2 | EccB F2F2 | Fddc B2BA | GABG A2A2 :|
|: e2ed c2cB | ABcd GABc | d2dc B2BA | GABG A2A2 :|
<end>
<start>
